X:1
T:Title
%%score { 1 | ( 2 3 ) }
L:1/8
Q:1/4=100
M:4/4
K:F
V:1 treble nm="Grand Piano"
V:2 bass 
V:3 bass 
V:1
 c2 c>c [Dc]2 [DB]>[^CF] | A2 A4 z2 | c2 [B,FB]>[CFA] [DFG]2 [DFA]>[DFG] | [CEG]6 z2 | %4
w: Hubert~P.~Main * * * * *||||
 A2 B>c A2 c>G | G2 ^F4 F2 | G2 A>c c2 d>=B | [CEc]6 z2 | [Ac]2 c>c [^Fd]2 A>c | [Ac]2 B4 z2 | %10
w: ||||||
 .[GB]2 B>B [Ec]2 G>B | [GB]2 A4 z2 | F2 A>B c2 _e>e | [F_e]2 [Fd]4 [^CG]2 | %14
w: ||||
[M:9/8] [A,CF]2 [G,CE]- [G,CE]/[A,CF]/[B,EG][CEA]- [CEA]2 [B,EG] |[M:4/4] [A,F]6 z2 |] %16
w: ||
V:2
 [F,A,F]2 [F,A,_E]>[F,A,E] [B,,B,]2 [B,,B,]>[B,,B,] | [F,A,C]2 [F,C]4 z2 | %2
 [F,A,F]2 D,>C, =B,,2 B,,>B,, | C,6 z2 | [F,CF]2 [G,CF]>[A,CF][K:bass] [F,CF]2 [E,G,C]>[E,G,C] | %5
 [D,A,C]2 [D,A,C]4 [D,A,C]2 | [E,C]2 [F,C]>[^F,A,_E][K:treble] [G,D]2 [G,=B,F]>[G,DF] | C,6 z2 | %8
 z2[K:treble] A>A z2 ^F>A | z2 G4 z2 | z2[K:treble] G>G[K:bass] z2 E>G | z2[K:treble] F4 z2 | %12
 [F,A,]2 [F,CF]>[K:treble][G,CF] [A,CF]2 [G,B,F]>[K:bass][F,A,F] | [B,,C]2 [B,,B,]4 [B,,B,]2 | %14
[M:9/8] C,2 C,- C,/B,,/C,C,- C,2 C, |[M:4/4] F,6 z2 |] %16
V:3
 x8 | x8 | x8 | x8 | x4[K:bass] x4 | x8 | x4[K:treble] x4 | x8 | F,4[K:treble] D,4 | G,,6 z2 | %10
 C,4[K:treble][K:bass] C,4 | F,,6[K:treble] z2 | x7/2[K:treble] x4[K:bass] x/ | x8 |[M:9/8] x9 | %15
[M:4/4] x8 |] %16

